logo/sanity.svg

<?xml version="1.0" encoding="UTF-8"?>
<svg width="512px" height="104px" viewBox="0 0 512 104" version="1.1" xmlns="http://www.w3.org/2000/svg" xmlns:xlink="http://www.w3.org/1999/xlink" preserveAspectRatio="xMidYMid">
	<g>
		<polygon fill="#F37368" points="381.461756 36.9858357 381.461756 101.81983 360.575637 101.81983 360.575637 26.8328612"></polygon>
		<path d="M85.8651558,89.7813031 L101.529745,103.415297 L167.524079,69.0402266 L160.707082,52.6504249 L85.8651558,89.7813031 Z M360.575637,48.0090652 L413.66119,20.4509915 L404.668555,4.93144476 L360.575637,26.8328612 L360.575637,48.0090652 Z" fill="#F7A199"></path>
		<path d="M211.18187,31.9093484 L211.18187,101.81983 L191.166006,101.81983 L191.166006,2.17563739 L211.18187,31.9093484 Z M85.8651558,89.7813031 L101.529745,103.415297 L131.698584,27.9932011 L121.980737,2.17563739 L85.8651558,89.7813031 Z" fill="#F37368"></path>
		<path d="M121.980737,2.17563739 L142.576771,2.17563739 L180.722946,101.81983 L159.546742,101.81983 L121.980737,2.17563739 Z M214.227762,2.17563739 L258.175637,70.2005666 L258.175637,101.81983 L191.166006,2.17563739 L214.227762,2.17563739 Z M295.886686,2.17563739 L316.627762,2.17563739 L316.627762,101.81983 L295.886686,101.81983 L295.886686,2.17563739 Z M360.575637,20.4509915 L328.666289,20.4509915 L328.666289,2.17563739 L403.073088,2.17563739 L413.66119,20.4509915 L381.461756,20.4509915 L360.575637,20.4509915 Z" fill="#F04939"></path>
		<polyline fill="#F7A199" points="475.014164 63.9637394 475.014164 101.81983 454.41813 101.81983 454.41813 63.9637394"></polyline>
		<polygon fill="#F04939" points="489.228329 2.17563739 454.41813 63.9637394 475.014164 63.9637394 511.129745 2.17563739"></polygon>
		<polygon fill="#F37368" points="454.41813 63.9637394 418.447592 2.17563739 441.074221 2.17563739 465.296317 44.5280453"></polygon>
		<path d="M8.55750708,13.7790368 C8.55750708,27.5580737 17.1150142,35.8254958 34.2300283,40.1767705 L52.3603399,44.3830028 C68.6050992,48.1541076 78.4679887,57.4368272 78.4679887,72.5212465 C78.6130312,79.0481586 76.4373938,85.4300283 72.5212465,90.6515581 C72.5212465,75.5671388 64.6889518,67.4447592 45.9784703,62.5133144 L28.1382436,58.4521246 C13.7790368,55.2611898 2.75580737,47.5739377 2.75580737,31.184136 C2.75580737,24.9473088 4.78640227,18.7104816 8.55750708,13.7790368" fill="#F04939"></path>
		<polygon fill="#F37368" points="258.175637 65.1240793 258.175637 2.17563739 278.191501 2.17563739 278.191501 101.81983 258.175637 101.81983"></polygon>
		<path d="M61.3529745,68.7501416 C69.0402266,73.6815864 72.5212465,80.6436261 72.5212465,90.6515581 C65.9943343,98.9189802 54.8260623,103.415297 41.6271955,103.415297 C19.4356941,103.415297 3.62606232,92.392068 0.290084986,73.3915014 L21.6113314,73.3915014 C24.3671388,82.094051 31.6192635,86.1552408 41.482153,86.1552408 C53.2305949,86.3002833 61.207932,79.9184136 61.3529745,68.7501416 M8.55750708,13.6339943 C14.7943343,5.51161473 25.5274788,0.580169972 38.5813031,0.580169972 C61.3529745,0.580169972 74.4067989,12.6186969 77.7427762,29.4436261 L57.1467422,29.4436261 C54.8260623,22.7716714 49.1694051,17.5501416 38.8713881,17.5501416 C27.7031161,17.6951841 20.1609065,24.0770538 19.725779,34.2300283 C12.2517705,30.1081799 8.2674221,22.0464589 8.55750708,13.6339943 Z" fill="#F37368"></path>
	</g>
</svg>

<svg viewBox="0 0 512 104" xmlns="http://www.w3.org/2000/svg"><path fill="#F37368" d="M381.46 36.98l0 64.83 -20.89 0 0-74.99Z"/><path fill="#F7A199" d="M85.86 89.78l15.66 13.63 65.99-34.38 -6.82-16.39 -74.85 37.13ZM360.57 48l53.08-27.56 -9-15.52 -44.1 21.9v21.17Z"/><path fill="#F37368" d="M211.18 31.9v69.91h-20.02V2.16l20.01 29.73ZM85.86 89.77l15.66 13.63 30.16-75.43 -9.72-25.82 -36.12 87.6Z"/><path fill="#F04939" d="M121.98 2.17h20.59l38.14 99.64h-21.18L121.96 2.16Zm92.24 0l43.94 68.02v31.61L191.15 2.15h23.06Zm81.65 0h20.74v99.64h-20.75V2.16Zm64.68 18.27h-31.91V2.16h74.4l10.58 18.27h-32.2 -20.89Z"/><path fill="#F7A199" d="M475.01 63.96l0 37.85 -20.6 0 0-37.86"/><path fill="#F04939" d="M489.22 2.17L454.4 63.95l20.59 0L511.1 2.16Z"/><path fill="#F37368" d="M454.41 63.96L418.43 2.17l22.62 0 24.22 42.35Z"/><path fill="#F04939" d="M8.55 13.77c0 13.77 8.55 22.04 25.67 26.39l18.13 4.2c16.24 3.77 26.1 13.05 26.1 28.13 .14 6.52-2.04 12.9-5.95 18.13 0-15.09-7.84-23.21-26.55-28.14L28.1 58.41C13.74 55.21 2.71 47.53 2.71 31.14c0-6.24 2.03-12.48 5.8-17.41"/><g fill="#F37368"><path d="M258.17 65.12l0-62.95 20.01 0 0 99.64 -20.02 0Z"/><path d="M61.35 68.75c7.68 4.93 11.16 11.89 11.16 21.9 -6.53 8.26-17.7 12.76-30.9 12.76 -22.2 0-38.01-11.03-41.34-30.03h21.32c2.75 8.7 10 12.76 19.87 12.76 11.74.14 19.72-6.24 19.87-17.41M8.53 13.61C14.76 5.48 25.49.55 38.55.55c22.77 0 35.82 12.03 39.16 28.86h-20.6c-2.33-6.68-7.98-11.9-18.28-11.9 -11.17.14-18.72 6.52-19.15 16.67 -7.48-4.13-11.46-12.19-11.17-20.6Z"/></g></svg>
